flaticon/hand-gestures/drag-26.svg

<svg xmlns="http://www.w3.org/2000/svg" width="32" height="32" viewBox="0 0 24 24">
    <path d="M3.800781 6.398438C3.960938 6.398438 4.082031 6.328125 4.148438 6.210938L5.28125 5.078125C5.441406 4.921875 5.441406 4.679688 5.28125 4.519531 5.121094 4.359375 4.878906 4.359375 4.71875 4.519531L4.199219 5.039062 4.199219.398438C4.199219.160156 4.039062 0 3.800781 0 3.558594 0 3.398438.160156 3.398438.398438L3.398438 5.039062 2.878906 4.519531C2.71875 4.359375 2.480469 4.359375 2.320312 4.519531 2.160156 4.679688 2.160156 4.921875 2.320312 5.078125L3.453125 6.210938C3.515625 6.328125 3.640625 6.398438 3.800781 6.398438zM19.800781 8.398438C19.359375 8.398438 18.921875 8.558594 18.601562 8.800781L18.601562 8.398438C18.601562 7.28125 17.71875 6.398438 16.601562 6.398438 16.160156 6.398438 15.71875 6.558594 15.398438 6.800781L15.398438 2C15.398438.878906 14.519531 0 13.398438 0 12.28125 0 11.398438.878906 11.398438 2 11.078125 1.761719 10.640625 1.601562 10.199219 1.601562 9.078125 1.601562 8.199219 2.480469 8.199219 3.601562L8.199219 11.078125C7.320312 9.558594 5.28125 8.800781 3.71875 9.359375 3.519531 9.398438 3.359375 9.519531 3.160156 9.640625 2.558594 10.039062 2.601562 10.558594 2.601562 10.71875 2.558594 10.960938 2.601562 11 3.160156 11.640625 3.839844 12.441406 5.320312 14.121094 6.238281 15.800781 6.320312 15.878906 7.398438 17.640625 8.601562 18.960938L8.601562 20C8.601562 22.199219 10.398438 24 12.601562 24L16.601562 24C18.320312 24 20.121094 22.558594 20.519531 20.878906 20.640625 20.398438 20.761719 20.039062 20.921875 19.878906 21.320312 19.398438 21.800781 18.28125 21.800781 16.800781L21.800781 10.398438C21.800781 9.28125 20.921875 8.398438 19.800781 8.398438zM16.640625 23.199219L12.640625 23.199219C10.878906 23.199219 9.441406 21.761719 9.441406 20L9.441406 19.636719C9.519531 19.695312 9.597656 19.75 9.679688 19.800781 9.921875 20 10.121094 20.121094 10.359375 20.320312 10.480469 20.441406 10.839844 20.359375 10.878906 20.238281 11.039062 20.078125 11 19.839844 10.839844 19.679688 10.601562 19.441406 10.359375 19.28125 10.121094 19.121094 9.84375 18.921875 9.566406 18.722656 9.289062 18.488281 8.101562 17.246094 6.960938 15.398438 6.960938 15.398438 6 13.679688 4.480469 11.960938 3.761719 11.121094 3.640625 10.960938 3.480469 10.761719 3.398438 10.679688 3.398438 10.558594 3.398438 10.480469 3.679688 10.320312 3.839844 10.238281 3.960938 10.160156 4.078125 10.121094 5.121094 9.761719 6.839844 10.238281 7.601562 11.558594L8.21875 12.488281C8.222656 12.511719 8.230469 12.535156 8.238281 12.558594L8.640625 13.359375C8.71875 13.519531 9.121094 13.601562 9.160156 13.519531 9.320312 13.441406 9.398438 13.199219 9.320312 13L9.039062 12.4375C9.039062 12.421875 9.039062 12.410156 9.039062 12.398438L9.039062 3.601562C9.039062 2.921875 9.558594 2.398438 10.238281 2.398438 10.917969 2.398438 11.441406 2.921875 11.441406 3.601562L11.441406 8.332031C11.414062 8.386719 11.398438 8.449219 11.398438 8.519531L11.398438 13.199219C11.398438 13.441406 11.558594 13.601562 11.800781 13.601562 12.039062 13.601562 12.199219 13.441406 12.199219 13.199219L12.199219 8.589844C12.226562 8.535156 12.238281 8.472656 12.238281 8.398438L12.238281 2C12.238281 1.320312 12.761719.800781 13.441406.800781 14.121094.800781 14.640625 1.320312 14.640625 2L14.640625 12.800781C14.640625 13.039062 14.800781 13.199219 15.039062 13.199219 15.28125 13.199219 15.441406 13.039062 15.441406 12.800781L15.441406 8.398438C15.441406 7.71875 15.960938 7.199219 16.640625 7.199219 17.320312 7.199219 17.839844 7.71875 17.839844 8.398438L17.839844 10.398438C17.839844 10.472656 17.855469 10.535156 17.878906 10.589844L17.878906 13.199219C17.878906 13.441406 18.039062 13.601562 18.28125 13.601562 18.519531 13.601562 18.679688 13.441406 18.679688 13.199219L18.679688 10.121094C18.679688 10.109375 18.679688 10.097656 18.679688 10.085938 18.808594 9.566406 19.269531 9.199219 19.839844 9.199219 20.519531 9.199219 21.039062 9.71875 21.039062 10.398438L21.039062 16.800781C21.039062 17.738281 20.808594 18.449219 20.589844 18.890625 20.5625 18.910156 20.539062 18.933594 20.519531 18.960938 20.320312 19.238281 19.960938 19.359375 19.160156 19.558594L18.878906 19.640625C18.679688 19.679688 18.558594 19.921875 18.601562 20.121094 18.679688 20.28125 18.839844 20.398438 19 20.398438 19.039062 20.398438 19.078125 20.398438 19.121094 20.398438L19.320312 20.359375C19.519531 20.300781 19.707031 20.25 19.882812 20.195312 19.835938 20.347656 19.792969 20.507812 19.761719 20.679688 19.480469 22.039062 18 23.199219 16.640625 23.199219zM16.640625 23.199219"/>
</svg>

<svg xmlns="http://www.w3.org/2000/svg" width="32" height="32" viewBox="0 0 24 24">
    <path d="M3.8 6.398a.38.38 0 0 0 .348-.187l1.133-1.133a.385.385 0 0 0 0-.558.39.39 0 0 0-.562 0l-.52.52V.397C4.2.16 4.04 0 3.801 0c-.242 0-.403.16-.403.398V5.04l-.52-.52a.385.385 0 0 0-.558 0 .385.385 0 0 0 0 .56L3.453 6.21c.063.117.188.187.348.187zm0 0M19.8 8.398c-.44 0-.878.16-1.198.403v-.403c0-1.117-.883-2-2-2-.442 0-.883.16-1.204.403V2c0-1.121-.878-2-2-2-1.117 0-2 .879-2 2a2.062 2.062 0 0 0-1.199-.398c-1.12 0-2 .878-2 2v7.476C7.32 9.558 5.281 8.801 3.72 9.36c-.2.04-.36.16-.559.282-.601.398-.558.918-.558 1.078-.043.242 0 .281.558.922.68.8 2.16 2.48 3.078 4.16.082.078 1.16 1.84 2.364 3.16V20c0 2.2 1.796 4 4 4h4c1.718 0 3.52-1.441 3.918-3.121.12-.48.242-.84.402-1 .398-.48.879-1.598.879-3.078v-6.403c0-1.117-.88-2-2-2zM16.64 23.2h-4A3.206 3.206 0 0 1 9.442 20v-.363c.079.058.157.113.239.164.242.199.441.32.68.52.12.12.48.038.519-.083.16-.16.121-.398-.04-.558-.237-.239-.48-.399-.718-.559a13.02 13.02 0 0 1-.832-.633c-1.187-1.242-2.328-3.09-2.328-3.09-.961-1.718-2.48-3.437-3.2-4.277a5.525 5.525 0 0 0-.363-.441c0-.121 0-.2.282-.36.16-.082.28-.16.398-.199 1.043-.36 2.762.117 3.524 1.438l.617.93c.004.023.011.046.02.07l.402.8c.078.16.48.243.52.16.16-.078.237-.32.16-.519l-.282-.563V3.603c0-.68.52-1.204 1.2-1.204.679 0 1.202.524 1.202 1.204v4.73a.414.414 0 0 0-.043.188v4.68c0 .241.16.402.403.402.238 0 .398-.16.398-.403V8.59a.42.42 0 0 0 .04-.19V2c0-.68.523-1.2 1.202-1.2.68 0 1.2.52 1.2 1.2v10.8c0 .24.16.4.398.4.242 0 .402-.16.402-.4V8.399c0-.68.52-1.199 1.2-1.199.68 0 1.199.52 1.199 1.2v2c0 .074.015.136.039.19v2.61c0 .242.16.403.402.403.239 0 .399-.16.399-.403v-3.078-.035c.129-.52.59-.887 1.16-.887.68 0 1.2.52 1.2 1.2V16.8c0 .937-.231 1.648-.45 2.09a.3.3 0 0 0-.07.07c-.2.277-.56.398-1.36.598l-.281.082c-.2.039-.32.28-.277.48.078.16.238.277.398.277h.121l.2-.039c.199-.058.386-.109.562-.164-.047.153-.09.313-.121.485C19.48 22.04 18 23.2 16.64 23.2zm0 0"/>
</svg>
